X:184
M:4/4
L:1/8
K:D
z2 | e2eg edBd | dBgB AFED | Beef gedB | BdAF D2FA | 
e2eg edBd | dBgB AFED | Beef gedB | BdAF E2 :|| 

